data/tiles/nweb.svg

<?xml version="1.0" encoding="UTF-8" standalone="no"?>
<!-- Created with Inkscape (http://www.inkscape.org/) -->
<svg
   xmlns:svg="http://www.w3.org/2000/svg"
   xmlns="http://www.w3.org/2000/svg"
   version="1.0"
   width="32"
   height="32"
   id="svg2">
  <defs
     id="defs4" />
  <g
     id="g4581">
    <g
       transform="translate(6.339286,5.089286)"
       id="g4622">
      <path
         d="M 18.03125,9.9375 L 13.0625,10.3125 L 11.46875,17.4375 L 14.03125,21.84375 L 19.65625,21.875 L 21.78125,15.1875 L 21.21875,11.3125 L 18.03125,9.9375 z"
         transform="matrix(0.950389,0.311063,-0.311063,0.950389,-3.155943,-11.70373)"
         id="path2787"
         style="fill:none;fill-opacity:1;fill-rule:evenodd;stroke:#000000;stroke-width:1px;stroke-linecap:butt;stroke-linejoin:miter;stroke-opacity:1" />
      <path
         d="M 6.3118741,2.4244057 L 7.5043368,8.8272721 L 8.6381819,14.835166"
         id="path4571"
         style="fill:none;fill-rule:evenodd;stroke:#000000;stroke-width:0.9999997px;stroke-linecap:butt;stroke-linejoin:miter;stroke-opacity:1" />
      <path
         d="M 3.7442972,13.139448 L 7.390172,8.6020124 L 13.050963,5.9453644"
         id="path4573"
         style="fill:none;fill-rule:evenodd;stroke:#000000;stroke-width:0.9999997px;stroke-linecap:butt;stroke-linejoin:miter;stroke-opacity:1" />
      <path
         d="M 10.722859,3.5862851 L 7.4164096,8.2348141"
         id="path4575"
         style="fill:none;fill-rule:evenodd;stroke:#000000;stroke-width:0.9999997px;stroke-linecap:butt;stroke-linejoin:miter;stroke-opacity:1" />
      <path
         d="M 12.506243,9.6188811 L 7.5598839,8.6575592"
         id="path4577"
         style="fill:none;fill-rule:evenodd;stroke:#000000;stroke-width:0.9999997px;stroke-linecap:butt;stroke-linejoin:miter;stroke-opacity:1" />
      <path
         d="M 2.5332759,8.5154905 L 7.5583479,8.3752173"
         id="path4579"
         style="fill:none;fill-rule:evenodd;stroke:#000000;stroke-width:0.9999997px;stroke-linecap:butt;stroke-linejoin:miter;stroke-opacity:1" />
    </g>
  </g>
</svg>

<?xml version="1.0" encoding="UTF-8" standalone="no"?>
<!-- Created with Inkscape (http://www.inkscape.org/) -->
<svg id="svg2" xmlns="http://www.w3.org/2000/svg" height="32" width="32" version="1.0">
 <g id="layer1" stroke-width="1px" stroke-linejoin="miter" transform="translate(6.339286,5.089286)" stroke="#000" stroke-linecap="butt" fill="none">
  <path id="path1" d="M18.031,9.9375l-4.969,0.3745-1.593,7.126,2.562,4.406,5.625,0.031,2.125-6.687-0.562-3.876-3.188-1.3745z" transform="matrix(0.950389,0.311063,-0.311063,0.950389,-3.155943,-11.70373)"/>
  <path id="path2" d="M6.3119,2.4244l1.1924,6.4029,1.1339,6.0077"/>
  <path id="path3" d="M3.7443,13.139l3.6459-4.537,5.6608-2.6566"/>
  <path id="path4" d="M10.723,3.5863l-3.3066,4.6485"/>
  <path id="path5" d="M12.506,9.6189l-4.9461-0.9613"/>
  <path id="path6" d="M2.5333,8.5155l5.025-0.1403"/>
 </g>
</svg>
